images/logo-my-standard.svg

<?xml version="1.0" encoding="UTF-8"?>
<svg width="190px" height="40px" viewBox="0 0 190 40" version="1.1" xmlns="http://www.w3.org/2000/svg" xmlns:xlink="http://www.w3.org/1999/xlink">
    <!-- Generator: Sketch 41.2 (35397) - http://www.bohemiancoding.com/sketch -->
    <title>logo-my-standard</title>
    <desc>Created with Sketch.</desc>
    <defs></defs>
    <g id="Pages" stroke="none" stroke-width="1" fill="none" fill-rule="evenodd">
        <g id="Web-Mobile" transform="translate(-65.000000, -2591.000000)">
            <g id="Logo" transform="translate(13.000000, 374.000000)">
                <g id="Sub-brands" transform="translate(0.000000, 2119.000000)">
                    <g id="logo-my-standard" transform="translate(52.000000, 98.000000)">
                        <g id="design">
                            <g>
                                <g id="Desktop-HD">
                                    <g id="sub-brands">
                                        <g id="logo-box">
                                            <g id="logo-my-standard">
                                                <path d="M0,26.2918257 L0,18.8602941 L29.3382353,18.8602941 L29.3382353,39.1176471 L0,39.1176471 L0,35.6619428 L2.10533535,35.6619428 L2.10533535,31.4936186 C2.10533535,30.5921997 2.1842801,29.9319345 2.34217195,29.5128035 C2.50006381,29.0936723 2.7383334,28.7678458 3.05698788,28.5353142 C3.37564235,28.3027825 3.73017602,28.1865184 4.12059952,28.1865184 C4.47083237,28.1865184 4.76938704,28.2783814 5.01627249,28.4621102 C5.26315794,28.6458388 5.44831925,28.9257338 5.57176197,29.3018036 C5.6952047,29.6778732 5.75692514,30.2850301 5.75692514,31.1232923 L5.75692514,35.6619428 L8.12529118,35.6619428 L8.12529118,31.433333 C8.12529118,30.5376555 8.20280057,29.8874379 8.35782164,29.4826606 C8.51284271,29.0778833 8.74967694,28.760669 9.06833146,28.5310081 C9.3869859,28.3013472 9.74726104,28.1865184 10.1491676,28.1865184 C10.6773876,28.1865184 11.0735467,28.3745505 11.3376567,28.7506202 C11.6017667,29.1266899 11.7338197,29.8458047 11.7338197,30.9079863 L11.7338197,35.6619428 L14.1021857,35.6619428 L14.1021857,30.1673337 C14.1021857,29.0419953 13.9916631,28.2295822 13.7706145,27.7300697 C13.5495659,27.2305573 13.1864201,26.8257861 12.6811662,26.5157439 C12.1759122,26.2057017 11.5902858,26.0506829 10.9242692,26.0506829 C10.2812187,26.0506829 9.68841546,26.1942188 9.14584161,26.4812949 C8.60326776,26.768371 8.14538822,27.1874959 7.77218932,27.7386819 C7.48511322,27.1874959 7.1061784,26.768371 6.63537363,26.4812949 C6.16456881,26.1942188 5.63635671,26.0506829 5.05072145,26.0506829 C4.47082772,26.0506829 3.93543882,26.1597702 3.44453868,26.377948 C2.95363854,26.5961259 2.50724189,26.9262584 2.10533535,27.3683557 L2.10533535,26.2918257 L4.84702147e-17,26.2918257 L0,26.2918257 Z M15.2992872,26.2918257 L17.7021021,26.2918257 L20.139366,32.1739856 L22.8263849,26.2918257 L25.2378122,26.2918257 L19.3642644,39.0896144 L16.9356128,39.0896144 L18.8647545,34.9643513 L15.2992872,26.2918257 Z" id="Rectangle-1" fill="#265B80"></path>
                                                <path d="M49.6178574,24.9562478 C47.875818,23.1258602 45.8923203,22.1915733 43.7179315,22.1915733 C41.862116,22.1915733 40.2717781,22.8458287 38.9949567,24.1212448 C37.7206637,25.405571 37.074668,27.0093877 37.074668,28.8855986 C37.074668,30.1902908 37.3578442,31.3727874 37.9241967,32.3834465 C38.4918133,33.4081071 39.3021524,34.2100154 40.3324587,34.7878986 C41.3577083,35.3606903 42.5232819,35.6572691 43.784933,35.6572691 C44.8594856,35.6572691 45.8543949,35.4510641 46.7456415,35.0513828 C47.615397,34.6504286 48.5837585,33.9185281 49.615329,32.8964132 C49.720256,33.0046072 51.8807388,35.2792265 51.9970433,35.3886934 C50.60771,36.7443004 49.2752647,37.6976803 48.037633,38.2259215 C46.7797743,38.7630728 45.3259679,39.0418314 43.7229883,39.0418314 C40.7584872,39.0418314 38.2958655,38.07445 36.4109738,36.1855103 C34.5197612,34.2914791 33.5665698,31.8386579 33.5665698,28.8754157 C33.5665698,26.9597458 33.9989192,25.2375521 34.8572971,23.7495667 C35.7194676,22.2692184 36.9684769,21.0510815 38.5689282,20.1409791 C40.1769646,19.2385141 41.9291174,18.7828264 43.7748196,18.7828264 C45.3474589,18.7828264 46.8847013,19.1201371 48.341036,19.7896669 C49.7758799,20.4490138 51.0210967,21.3985751 52.0691016,22.6065291 L49.6178574,24.9562478 L49.6178574,24.9562478 Z M57.2230796,34.6736156 L57.2230796,34.6736156 C56.476293,33.9188092 56.091391,32.9357492 56.091391,31.731682 C56.091391,30.5626378 56.4801293,29.5880316 57.2371457,28.8356406 C58.0005559,28.0784188 58.9660077,27.6967886 60.1104837,27.6967886 C61.2754195,27.6967886 62.2549375,28.0747957 63.0055603,28.8211483 C63.7587406,29.5638778 64.1359701,30.5433147 64.1359701,31.731682 C64.1359701,32.9152185 63.7510681,33.8994861 62.9799854,34.660331 C62.2204114,35.4199682 61.2485659,35.8003906 60.0951388,35.8003906 C58.9429904,35.8003906 57.9775385,35.4199682 57.2230796,34.6736156 C57.2230796,34.6736156 57.9775385,35.4199682 57.2230796,34.6736156 L57.2230796,34.6736156 L57.2230796,34.6736156 L57.2230796,34.6736156 L57.2230796,34.6736156 Z M55.2483835,26.3305045 C53.6725887,27.779715 52.8735595,29.6014732 52.8735595,31.7597661 C52.8735595,33.7715235 53.5798222,35.5075957 54.9750313,36.915826 C56.3714773,38.3178471 58.0746714,39.0418314 60.0425595,39.0418314 C61.3858194,39.0418314 62.6276544,38.7152313 63.7408532,38.0719656 C64.854052,37.4349091 65.744611,36.5370692 66.3890294,35.4070079 C67.0297371,34.267012 67.3538017,33.035121 67.3538017,31.7349295 C67.3538017,30.4421891 67.0359215,29.217749 66.3939769,28.0988642 C65.7532692,26.9799793 64.854052,26.0821394 63.7086941,25.4326646 C62.5658101,24.7807061 61.3301594,24.4553478 60.0326644,24.4553478 C58.2367037,24.4553478 56.6262761,25.0886789 55.2483835,26.3305045 L55.2483835,26.3305045 L55.2483835,26.3305045 L55.2483835,26.3305045 L55.2483835,26.3305045 Z M68.9627175,19.5931866 L68.9627175,39.0418314 L72.1805488,39.0418314 L72.1805488,19.5931866 L68.9627175,19.5931866 L68.9627175,19.5931866 Z M78.9460003,34.6736156 L78.9460003,34.6736156 C78.191541,33.9188092 77.8117541,32.9357492 77.8117541,31.731682 C77.8117541,30.5626378 78.1966564,29.5880316 78.9575093,28.8356406 C79.7209195,28.0784188 80.6850926,27.6967886 81.8270108,27.6967886 C82.9983406,27.6967886 83.9701857,28.0747957 84.7233659,28.8211483 C85.4727099,29.5638778 85.8563331,30.5433147 85.8563331,31.731682 C85.8563331,32.9152185 85.4701525,33.8994861 84.702906,34.660331 C83.9394958,35.4199682 82.9650933,35.8003906 81.8142235,35.8003906 C80.6620747,35.8003906 79.6966232,35.4199682 78.9460003,34.6736156 C78.9460003,34.6736156 79.6966232,35.4199682 78.9460003,34.6736156 L78.9460003,34.6736156 L78.9460003,34.6736156 L78.9460003,34.6736156 L78.9460003,34.6736156 Z M76.9683413,26.3305045 C75.3903424,27.779715 74.5939225,29.6014732 74.5939225,31.7597661 C74.5939225,33.7715235 75.3013015,35.5075957 76.693799,36.915826 C78.0900063,38.3178471 79.7916728,39.0418314 81.7641718,39.0418314 C83.1047287,39.0418314 84.345115,38.7152313 85.4593603,38.0719656 C86.5674221,37.4349091 87.4590656,36.5370692 88.1033744,35.4070079 C88.7464455,34.267012 89.0741647,33.035121 89.0741647,31.7349295 C89.0741647,30.4421891 88.7501561,29.217749 88.1095578,28.0988642 C87.4677224,26.9799793 86.5674221,26.0821394 85.4272069,25.4326646 C84.2832812,24.7807061 83.0478418,24.4553478 81.751805,24.4553478 C79.9598612,24.4553478 78.3484719,25.0886789 76.9683413,26.3305045 L76.9683413,26.3305045 L76.9683413,26.3305045 L76.9683413,26.3305045 L76.9683413,26.3305045 Z M97.0311489,24.855117 L97.0311489,24.855117 C96.4077372,25.1122934 95.6989255,25.5948174 94.9205758,26.2759528 L94.7900374,26.3943558 L94.7900374,24.8232883 L91.4875385,24.8232883 L91.4875385,39.0418314 L94.7900374,39.0418314 L94.7900374,33.3521225 C94.7900374,31.831981 94.8400563,30.8745719 94.9437551,30.409872 C95.1413928,29.5364909 95.5000681,28.8400776 96.0088022,28.343549 C96.5248555,27.8444741 97.1507078,27.5923903 97.8704983,27.5923903 C98.4243714,27.5923903 98.8977257,27.7438952 99.2808006,28.046905 C99.6541164,28.3575536 99.9273929,28.8057026 100.079891,29.3824397 C100.229949,29.9617231 100.303148,31.0820954 100.303148,32.8275845 L100.303148,39.0418314 L103.554407,39.0418314 L103.554407,29.6154262 C103.554407,27.9908863 103.160352,26.7419259 102.379562,25.9232902 C101.445054,24.9416912 100.298268,24.4553478 98.9611647,24.4553478 C98.3048132,24.4553478 97.6582215,24.5890286 97.0311489,24.855117 L97.0311489,24.855117 Z M106.772239,24.4553478 L106.772239,39.0418314 L109.99007,39.0418314 L109.99007,24.4553478 L106.772239,24.4553478 L106.772239,24.4553478 Z M116.425733,31.721132 C116.425733,30.5511953 116.803985,29.5758501 117.560488,28.8249418 C118.313145,28.0692583 119.274802,27.6967886 120.415968,27.6967886 C121.581496,27.6967886 122.561104,28.058514 123.324018,28.8070346 C124.089497,29.544811 124.470313,30.5189624 124.470313,31.708 C124.470313,32.9233015 124.089497,33.9177477 123.324018,34.668656 C122.561104,35.4207581 121.589189,35.8003906 120.431355,35.8003906 C119.304293,35.8003906 118.343918,35.4100138 117.577157,34.6483612 C116.811679,33.8867085 116.425733,32.8994253 116.425733,31.721132 C116.425733,31.721132 116.425733,32.8994253 116.425733,31.721132 L116.425733,31.721132 L116.425733,31.721132 L116.425733,31.721132 L116.425733,31.721132 Z M115.120552,26.4956673 L115.120552,26.4956673 C113.84963,27.8629173 113.207902,29.6337606 113.207902,31.7771516 C113.207902,33.8274057 113.872191,35.569687 115.176954,36.9518389 C116.498012,38.3364745 118.069744,39.0418314 119.86583,39.0418314 C120.66047,39.0418314 121.413748,38.9015052 122.099344,38.6109179 C122.781181,38.332749 123.471791,37.8608552 124.161147,37.2200733 L124.297765,37.0822306 L124.297765,38.6829438 L127.688144,38.6829438 L127.688144,24.8142355 L124.297765,24.8142355 L124.297765,26.4832491 L124.157387,26.3305045 C123.533206,25.7120754 122.846356,25.237698 122.114385,24.9210324 C121.383668,24.6093342 120.595295,24.4553478 119.760547,24.4553478 C117.945659,24.4553478 116.386461,25.1445611 115.120552,26.4956673 L115.120552,26.4956673 L115.120552,26.4956673 L115.120552,26.4956673 L115.120552,26.4956673 Z M130.905976,19.5931866 L130.905976,39.0418314 L134.123807,39.0418314 L134.123807,19.5931866 L130.905976,19.5931866 L130.905976,19.5931866 Z M142.972844,18.7828264 L142.972844,39.0418314 L151.821881,39.0418314 L151.821881,35.5918812 L146.475825,35.5918812 L146.475825,18.7828264 L142.972844,18.7828264 L142.972844,18.7828264 Z M163.841151,19.4589803 C163.290552,19.9071885 162.958649,20.5282767 162.864739,21.3004752 C162.81714,21.6411134 162.781119,22.7680366 162.775974,24.6505104 L162.775974,24.740152 L161.475376,24.740152 L161.475376,27.6368568 L162.775974,27.6368568 L162.775974,39.0418314 L166.258384,39.0418314 L166.258384,27.6368568 L168.561124,27.6368568 L168.561124,24.740152 L166.258384,24.740152 L166.267389,22.8410304 C166.267389,22.3941029 166.345863,22.103408 166.504096,21.954859 C166.726651,21.7576475 167.059841,21.6577611 167.503665,21.6577611 C167.821417,21.6577611 168.234366,21.7384386 168.715497,21.8690592 L168.715497,19.2784165 C167.803406,18.9531455 166.96207,18.7828264 166.235228,18.7828264 C165.207358,18.7828264 164.399469,19.0094917 163.841151,19.4589803 L163.841151,19.4589803 Z M176.823399,26.8864284 C177.761849,26.8864284 178.601515,27.104506 179.313268,27.5342153 C180.026287,27.9671474 180.506276,28.5397351 180.749438,29.2218987 L180.782366,29.317509 L172.737787,29.317509 L172.794778,29.2133045 C173.202579,28.4580903 173.655973,27.9198794 174.13343,27.6094144 C174.904707,27.1335113 175.812761,26.8864284 176.823399,26.8864284 C176.823399,26.8864284 175.812761,26.8864284 176.823399,26.8864284 L176.823399,26.8864284 L176.823399,26.8864284 L176.823399,26.8864284 L176.823399,26.8864284 Z M171.559478,26.547824 C170.207199,27.936185 169.519955,29.7132375 169.519955,31.824341 C169.519955,33.8770787 170.207199,35.6143928 171.564413,36.9816428 C172.915458,38.346409 174.693409,39.0418314 176.857549,39.0418314 C178.246842,39.0418314 179.460933,38.788499 180.470206,38.2942524 C181.456037,37.8099404 182.30368,37.0573941 183.0156,36.0589663 C182.834227,35.9782477 180.301171,34.7823696 180.209868,34.7389057 C179.265987,35.647922 178.13333,36.111123 176.829171,36.111123 C175.717489,36.111123 174.785946,35.811843 174.071558,35.2058321 C173.359637,34.6060303 172.905588,33.7827 172.74519,32.7693703 L172.726682,32.6725079 L183.984158,32.6725079 C183.992794,32.5445999 184.000197,32.0826407 184.000197,32.0826407 C184.000197,29.8026489 183.315421,27.936185 181.955739,26.547824 C180.607161,25.1582211 178.827977,24.4553478 176.655201,24.4553478 C174.626782,24.4553478 172.905588,25.1582211 171.559478,26.547824 L171.559478,26.547824 L171.559478,26.547824 L171.559478,26.547824 L171.559478,26.547824 Z M155.039713,24.4553478 L155.039713,39.0418314 L158.257545,39.0418314 L158.257545,24.4553478 L155.039713,24.4553478 L155.039713,24.4553478 Z M186.865865,36.4990013 L187.124709,36.4990013 C187.424422,36.4990013 187.66828,36.3963884 187.66828,36.1447762 C187.66828,35.9226826 187.511612,35.7764945 187.166941,35.7764945 C187.023897,35.7764945 186.923083,35.7891454 186.865865,35.8046076 L186.865865,36.4990013 L186.865865,36.4990013 L186.865865,36.4990013 L186.865865,36.4990013 Z M186.853605,37.8596754 L186.307309,37.8596754 L186.307309,35.4349203 C186.521195,35.4068072 186.822271,35.3618262 187.209174,35.3618262 C187.653295,35.3618262 187.85492,35.4349203 188.012951,35.5529953 C188.155996,35.6570138 188.255446,35.8341264 188.255446,36.0702764 C188.255446,36.3668697 188.04156,36.5580387 187.769093,36.6480007 L187.769093,36.6761138 C187.997965,36.7506135 188.111038,36.9431883 188.184604,37.2678946 C188.255446,37.6375819 188.312664,37.7697135 188.354896,37.8596754 L187.782716,37.8596754 C187.711875,37.7697135 187.66828,37.5630822 187.596077,37.2678946 C187.555206,37.0162823 187.410799,36.8968017 187.109723,36.8968017 L186.853605,36.8968017 L186.853605,37.8596754 L186.853605,37.8596754 L186.853605,37.8596754 L186.853605,37.8596754 Z M185.405444,36.6030197 C185.405444,37.6825629 186.192873,38.5386069 187.237783,38.5386069 C188.255446,38.5540691 189.027889,37.6825629 189.027889,36.6170763 C189.027889,35.5389387 188.255446,34.6674326 187.209174,34.6674326 C186.192873,34.6674326 185.405444,35.5389387 185.405444,36.6030197 C185.405444,36.6030197 185.405444,35.5389387 185.405444,36.6030197 L185.405444,36.6030197 L185.405444,36.6030197 L185.405444,36.6030197 L185.405444,36.6030197 Z M189.631403,36.6030197 C189.631403,37.9622883 188.571507,39.0418314 187.224159,39.0418314 C185.878174,39.0418314 184.804655,37.9622883 184.804655,36.6030197 C184.804655,35.2437512 185.878174,34.1796702 187.237783,34.1796702 C188.571507,34.1796702 189.631403,35.2437512 189.631403,36.6030197 L189.631403,36.6030197 L189.631403,36.6030197 L189.631403,36.6030197 L189.631403,36.6030197 Z" id="logo" fill="#265B80"></path>
                                                <path d="M105.967781,15.9477711 C105.967781,17.5111499 107.230195,18.7828264 108.782187,18.7828264 C110.337769,18.7828264 111.598986,17.5111499 111.598986,15.9477711 C111.598986,14.3771602 110.337769,13.110305 108.782187,13.110305 C107.230195,13.110305 105.967781,14.3771602 105.967781,15.9477711 Z M119.645326,15.5413856 C120.97324,15.5413856 122.056939,13.9025642 122.056939,11.8965884 C122.056939,9.8857496 120.97324,8.24814386 119.645326,8.24814386 C118.312716,8.24814386 117.230191,9.8857496 117.230191,11.8965884 C117.230191,13.9025642 118.312716,15.5413856 119.645326,15.5413856 Z M145.386218,4.20181419 C145.386218,6.43167256 146.288103,8.24814386 147.397937,8.24814386 C148.505475,8.24814386 149.408508,6.43167256 149.408508,4.20181419 C149.408508,1.96466075 148.546835,0.144541895 147.440446,0.144541895 C146.328314,0.144541895 145.386218,1.96466075 145.386218,4.20181419 Z M127.688144,6.21784112 C127.688144,8.67682179 128.586351,10.6792245 129.69667,10.6792245 C130.808299,10.6792245 131.710434,8.67682179 131.710434,6.21784112 C131.710434,3.76263381 130.808299,1.76526229 129.69667,1.76526229 C128.586351,1.76526229 127.688144,3.76263381 127.688144,6.21784112 Z M154.235255,14.7316437 C154.235255,16.515889 155.323046,17.9724662 156.651851,17.9724662 C157.981945,17.9724662 159.062002,16.515889 159.062002,14.7316437 C159.062002,12.9399795 157.981945,11.4895847 156.651851,11.4895847 C155.323046,11.4895847 154.235255,12.9399795 154.235255,14.7316437 Z M136.537181,9.05914468 C136.537181,12.1314668 137.464984,14.7310254 138.549005,14.7310254 C139.642536,14.7310254 140.559471,12.1314668 140.559471,9.05914468 C140.559471,5.98169773 139.642536,3.38598269 138.549005,3.38598269 C137.464984,3.38598269 136.537181,5.98169773 136.537181,9.05914468 Z" id="logo-dots" fill="#5B7183"></path>
                                            </g>
                                        </g>
                                    </g>
                                </g>
                            </g>
                        </g>
                    </g>
                </g>
            </g>
        </g>
    </g>
</svg>

<svg width="190" height="40" viewBox="0 0 190 40" xmlns="http://www.w3.org/2000/svg"><title>logo-my-standard</title><g fill="none" fill-rule="evenodd"><path d="M0 26.292V18.86h29.338v20.258H0v-3.456h2.105v-4.168c0-.902.08-1.562.237-1.981.158-.42.396-.745.715-.978a1.762 1.762 0 0 1 1.064-.348c.35 0 .648.091.895.275.247.184.432.464.556.84.123.376.185.983.185 1.821v4.539h2.368v-4.229c0-.895.078-1.546.233-1.95a2.04 2.04 0 0 1 .71-.952c.319-.23.68-.344 1.081-.344.528 0 .925.188 1.189.564.264.376.396 1.095.396 2.157v4.754h2.368v-5.495c0-1.125-.11-1.937-.331-2.437-.221-.5-.585-.904-1.09-1.214-.505-.31-1.09-.465-1.757-.465-.643 0-1.236.143-1.778.43-.543.287-1 .706-1.374 1.258-.287-.552-.666-.97-1.137-1.258a2.983 2.983 0 0 0-1.584-.43c-.58 0-1.116.109-1.606.327a4.01 4.01 0 0 0-1.34.99v-1.076H0zm15.3 0h2.402l2.437 5.882 2.687-5.882h2.412L19.364 39.09h-2.428l1.929-4.126-3.566-8.672zm34.318-1.336c-1.742-1.83-3.726-2.764-5.9-2.764-1.856 0-3.446.654-4.723 1.93-1.274 1.284-1.92 2.887-1.92 4.764 0 1.304.283 2.487.85 3.497a6.123 6.123 0 0 0 2.407 2.405c1.026.573 2.191.87 3.453.87 1.074 0 2.07-.207 2.96-.607.87-.4 1.839-1.132 2.87-2.155.105.109 2.266 2.383 2.382 2.493-1.39 1.355-2.722 2.309-3.96 2.837-1.257.537-2.711.816-4.314.816-2.965 0-5.427-.968-7.312-2.856-1.891-1.895-2.844-4.347-2.844-7.31 0-1.916.432-3.638 1.29-5.126.862-1.48 2.111-2.699 3.712-3.609a10.514 10.514 0 0 1 5.206-1.358 10.967 10.967 0 0 1 8.294 3.824l-2.451 2.35zm7.605 9.718c-.747-.755-1.132-1.738-1.132-2.942 0-1.17.39-2.144 1.146-2.896.764-.758 1.729-1.14 2.873-1.14 1.165 0 2.145.379 2.896 1.125.753.743 1.13 1.722 1.13 2.91 0 1.184-.385 2.168-1.156 2.93-.76.759-1.731 1.14-2.885 1.14-1.152 0-2.117-.381-2.872-1.127 0 0 .755.746 0 0zm-1.975-8.343c-1.575 1.449-2.374 3.27-2.374 5.429 0 2.012.706 3.748 2.101 5.156 1.396 1.402 3.1 2.126 5.068 2.126 1.343 0 2.585-.327 3.698-.97a7.046 7.046 0 0 0 2.648-2.665 7.4 7.4 0 0 0 .965-3.672 7.213 7.213 0 0 0-.96-3.636 7.06 7.06 0 0 0-2.685-2.666 7.326 7.326 0 0 0-3.676-.978c-1.796 0-3.407.634-4.785 1.876zm13.715-6.738v19.449h3.218V19.593h-3.218zm9.983 15.08c-.754-.754-1.134-1.737-1.134-2.941 0-1.17.385-2.144 1.146-2.896.763-.758 1.727-1.14 2.869-1.14 1.171 0 2.143.379 2.896 1.125.75.743 1.133 1.722 1.133 2.91 0 1.184-.386 2.168-1.153 2.93-.764.759-1.738 1.14-2.889 1.14-1.152 0-2.117-.381-2.868-1.127 0 0 .75.746 0 0zm-1.978-8.342c-1.578 1.449-2.374 3.27-2.374 5.429 0 2.012.707 3.748 2.1 5.156 1.396 1.402 3.098 2.126 5.07 2.126 1.34 0 2.581-.327 3.695-.97a7.071 7.071 0 0 0 2.644-2.665 7.382 7.382 0 0 0 .971-3.672 7.231 7.231 0 0 0-.964-3.636 7.096 7.096 0 0 0-2.683-2.666 7.33 7.33 0 0 0-3.675-.978c-1.792 0-3.404.634-4.784 1.876zm20.063-1.476c-.623.257-1.332.74-2.11 1.421l-.131.118v-1.57h-3.302v14.218h3.302v-5.69c0-1.52.05-2.477.154-2.942.197-.874.556-1.57 1.065-2.066a2.593 2.593 0 0 1 1.861-.752c.554 0 1.028.152 1.41.455.374.31.647.759.8 1.335.15.58.223 1.7.223 3.446v6.214h3.251v-9.427c0-1.624-.394-2.873-1.174-3.692-.935-.981-2.082-1.468-3.419-1.468-.656 0-1.303.134-1.93.4zm9.741-.4v14.587h3.218V24.455h-3.218zm9.654 7.266c0-1.17.378-2.145 1.134-2.896.753-.756 1.715-1.128 2.856-1.128 1.165 0 2.145.362 2.908 1.11.765.738 1.146 1.712 1.146 2.901 0 1.215-.38 2.21-1.146 2.96-.763.753-1.735 1.132-2.893 1.132-1.127 0-2.087-.39-2.854-1.152-.765-.761-1.151-1.749-1.151-2.927 0 0 0 1.178 0 0zm-1.305-5.225c-1.271 1.367-1.913 3.138-1.913 5.281 0 2.05.664 3.793 1.969 5.175 1.321 1.384 2.893 2.09 4.689 2.09.794 0 1.548-.14 2.233-.431.682-.278 1.373-.75 2.062-1.39l.137-.139v1.6h3.39V24.815h-3.39v1.67l-.14-.153a6.687 6.687 0 0 0-2.044-1.41 5.948 5.948 0 0 0-2.353-.466c-1.815 0-3.375.69-4.64 2.04zm15.785-6.903v19.449h3.218V19.593h-3.218zm12.067-.81v20.259h8.849v-3.45h-5.346v-16.81h-3.503zm20.868.676c-.55.448-.882 1.07-.976 1.841-.048.341-.084 1.468-.089 3.35v.09h-1.3v2.897h1.3v11.405h3.482V27.637h2.303V24.74h-2.303l.01-1.899c0-.447.078-.738.236-.886.223-.197.556-.297 1-.297.317 0 .73.08 1.211.211v-2.59c-.912-.326-1.753-.496-2.48-.496-1.028 0-1.836.226-2.394.676zm12.982 7.427c.939 0 1.779.219 2.49.648.713.433 1.193 1.006 1.436 1.688l.033.096h-8.044l.057-.105c.408-.755.861-1.293 1.338-1.604.772-.475 1.68-.723 2.69-.723 0 0-1.01 0 0 0zm-5.264-.338c-1.352 1.388-2.039 3.165-2.039 5.276 0 2.053.687 3.79 2.044 5.158 1.351 1.364 3.13 2.06 5.294 2.06 1.389 0 2.603-.254 3.612-.748.986-.484 1.834-1.237 2.546-2.235-.182-.08-2.715-1.277-2.806-1.32-.944.909-2.077 1.372-3.38 1.372-1.113 0-2.044-.3-2.758-.905-.712-.6-1.166-1.423-1.327-2.437l-.018-.096h11.257c.009-.128.016-.59.016-.59 0-2.28-.685-4.147-2.044-5.535-1.349-1.39-3.128-2.093-5.3-2.093-2.03 0-3.75.703-5.097 2.093zm-16.52-2.093v14.587h3.219V24.455h-3.218zM186.867 36.5h.259c.3 0 .543-.103.543-.354 0-.222-.156-.369-.501-.369-.143 0-.244.013-.301.029v.694zm-.012 1.36h-.547v-2.424c.214-.028.515-.073.902-.073.444 0 .646.073.804.191a.618.618 0 0 1 .242.517c0 .297-.213.488-.486.578v.028c.229.075.342.267.416.592.07.37.128.502.17.592h-.572c-.071-.09-.115-.297-.187-.592-.04-.252-.185-.371-.486-.371h-.256v.963zm-1.449-1.256c0 1.08.788 1.936 1.833 1.936 1.017.015 1.79-.856 1.79-1.922 0-1.078-.773-1.95-1.819-1.95-1.016 0-1.804.872-1.804 1.936 0 0 0-1.064 0 0zm4.226 0c0 1.36-1.06 2.439-2.407 2.439a2.415 2.415 0 0 1-2.42-2.439 2.405 2.405 0 0 1 2.434-2.423c1.334 0 2.393 1.064 2.393 2.423z" fill="#265B80"/><path d="M105.968 15.948c0 1.563 1.262 2.835 2.814 2.835a2.828 2.828 0 0 0 2.817-2.835 2.825 2.825 0 0 0-2.817-2.838 2.825 2.825 0 0 0-2.814 2.838zm13.677-.407c1.328 0 2.412-1.638 2.412-3.644 0-2.011-1.084-3.649-2.412-3.649-1.332 0-2.415 1.638-2.415 3.649 0 2.006 1.083 3.644 2.415 3.644zm25.741-11.34c0 2.23.902 4.047 2.012 4.047 1.107 0 2.01-1.816 2.01-4.046 0-2.237-.861-4.057-1.968-4.057-1.112 0-2.054 1.82-2.054 4.057zm-17.698 2.017c0 2.459.898 4.461 2.009 4.461 1.111 0 2.013-2.002 2.013-4.461 0-2.455-.902-4.453-2.013-4.453-1.11 0-2.009 1.998-2.009 4.453zm26.547 8.514c0 1.784 1.088 3.24 2.417 3.24 1.33 0 2.41-1.456 2.41-3.24 0-1.792-1.08-3.242-2.41-3.242-1.329 0-2.417 1.45-2.417 3.242zm-17.698-5.673c0 3.072.928 5.672 2.012 5.672 1.094 0 2.01-2.6 2.01-5.672 0-3.077-.916-5.673-2.01-5.673-1.084 0-2.012 2.596-2.012 5.673z" fill="#5B7183"/></g></svg>
